X:1
T:Johnny O'Leary's
R:jig
M:6/8
L:1/8
K:Edor
|:~B2B EFA|B2A Bcd|~B2B EFG|~A2G FED|
|~B2B EFA|B2A Bcd|ABA DFG|A2G FED:|
|:E2g fed|edc d2=c|~B2B EFG|~A2G FED|
|E2g fed|edc d2B|ABA DFG|A2G FED:|
|:~E2E EFD|EFD EGF|~E2E EFG|~A2G FED|
|~E2E EFD|EFD EFG|ABA DFG|A2G FED:|